Numix/scalable/actions/format-text-larger-symbolic.svg

<?xml version="1.0" encoding="UTF-8" standalone="no"?>
<svg
   xmlns:dc="http://purl.org/dc/elements/1.1/"
   xmlns:cc="http://creativecommons.org/ns#"
   xmlns:rdf="http://www.w3.org/1999/02/22-rdf-syntax-ns#"
   xmlns:svg="http://www.w3.org/2000/svg"
   xmlns="http://www.w3.org/2000/svg"
   xmlns:sodipodi="http://sodipodi.sourceforge.net/DTD/sodipodi-0.dtd"
   xmlns:inkscape="http://www.inkscape.org/namespaces/inkscape"
   viewBox="0 0 16 16"
   id="svg2757"
   version="1.1"
   inkscape:version="0.91 r"
   sodipodi:docname="format-text-larger-symbolic.svg">
  <metadata
     id="metadata2765">
    <rdf:RDF>
      <cc:Work
         rdf:about="">
        <dc:format>image/svg+xml</dc:format>
        <dc:type
           rdf:resource="http://purl.org/dc/dcmitype/StillImage" />
      </cc:Work>
    </rdf:RDF>
  </metadata>
  <defs
     id="defs2763" />
  <sodipodi:namedview
     pagecolor="#ffffff"
     bordercolor="#666666"
     borderopacity="1"
     objecttolerance="10"
     gridtolerance="10"
     guidetolerance="10"
     inkscape:pageopacity="0"
     inkscape:pageshadow="2"
     inkscape:window-width="640"
     inkscape:window-height="480"
     id="namedview2761" />
  <path
     style="letter-spacing:0;word-spacing:0;color:#bebebe;fill:#bebebe;line-height:125%"
     d="m 7.1875,1 -4.625,12 -1.15625,0 0,1 L 5,14 5,13 3.65625,13 4.75,10 l 5.46875,0 1.0625,3 L 10,13 l 0,1 4.59375,0 0,-1 L 13.3125,13 8.65625,1 7.1875,1 z M 7.46875,3.09375 9.875,9 5.09375,9 7.46875,3.09375 z"
     id="path2759" />
</svg>

<svg xmlns="http://www.w3.org/2000/svg" viewBox="0 0 16 16">
 <path d="m 7.188 1 -4.625 12 -1.156 0 0 1 l 3.594 0 0 -1 -1.344 0 1.094 -3 l 5.469 0 1.063 3 l -1.281 0 l 0 1 4.594 0 0 -1 l -1.281 0 -4.656 -12 -1.469 0 z m 0.281 2.094 2.406 5.906 -4.781 0 2.375 -5.906 z" style="fill:#bebebe;color:#bebebe"/>
</svg>
